; generated by PrusaSlicer 2.1.1+ on 2020-03-09 at 04:27:23 UTC

; 

; external perimeters extrusion width = 0.45mm
; perimeters extrusion width = 0.45mm
; infill extrusion width = 0.45mm
; solid infill extrusion width = 0.45mm
; top infill extrusion width = 0.40mm
; first layer extrusion width = 0.42mm

M201 X9000 Y9000 Z500 E10000 ; sets maximum accelerations, mm/sec^2
M203 X500 Y500 Z12 E120 ; sets maximum feedrates, mm/sec
M204 P1500 R1500 T1500 ; sets acceleration (P, T) and retract acceleration (R), mm/sec^2
M205 X10.00 Y10.00 Z0.20 E2.50 ; sets the jerk limits, mm/sec
M205 S0 T0 ; sets the minimum extruding and travel feed rate, mm/sec
M107
M190 S50 ; set bed temperature and wait for it to be reached
M104 S200 ; set temperature
G28 ; home all axes
G1 Z5 F5000 ; lift nozzle
M109 S200 ; set temperature and wait for it to be reached
G21 ; set units to millimeters
G90 ; use absolute coordinates
M82 ; use absolute distances for extrusion
G92 E0
; Filament gcode
G1 Z0.350 F48000.000
G1 E-2.00000 F2400.00000
G92 E0
G1 X69.090 Y89.694 F48000.000
G1 E2.00000 F2400.00000
G1 F1800
G1 X70.346 Y88.410 E2.09013
G1 X71.338 Y87.704 E2.15122
G1 X72.428 Y87.142 E2.21277
G1 X73.600 Y86.738 E2.27502
G1 X74.826 Y86.505 E2.33763
G1 X100.001 Y84.985 E3.60336
G1 X102.843 Y85.163 E3.74630
G1 X105.677 Y85.722 E3.89125
G1 X108.475 Y86.673 E4.03956
G1 X111.041 Y87.949 E4.18335
G1 X113.453 Y89.575 E4.32936
G1 X115.642 Y91.523 E4.47639
G1 X117.495 Y93.673 E4.61888
G1 X119.046 Y96.034 E4.76065
G1 X119.722 Y97.635 E4.84783
G1 X120.050 Y99.388 E4.93734
G1 X119.994 Y101.131 E5.02487
G1 X119.575 Y102.805 E5.11148
G1 X119.201 Y103.674 E5.15894
G1 X118.693 Y104.567 E5.21049
G1 X117.216 Y106.690 E5.34033
G1 X115.612 Y108.507 E5.46194
G1 X113.888 Y110.079 E5.57904
G1 X112.396 Y111.196 E5.67255
G1 X110.837 Y112.168 E5.76476
G1 X109.247 Y112.987 E5.85451
G1 X107.488 Y113.711 E5.94998
G1 X105.691 Y114.274 E6.04451
G1 X103.810 Y114.690 E6.14115
G1 X102.077 Y114.922 E6.22890
G1 X100.197 Y115.015 E6.32336
G1 X74.606 Y113.467 E7.61002
G1 X73.048 Y113.095 E7.69041
G1 X71.569 Y112.432 E7.77178
G1 X70.307 Y111.558 E7.84881
G1 X69.187 Y110.426 E7.92871
G1 X68.476 Y109.419 E7.99058
G1 X67.932 Y108.353 E8.05065
G1 X67.526 Y107.173 E8.11326
G1 X67.297 Y105.985 E8.17397
G1 X67.230 Y104.934 E8.22682
G1 X67.243 Y94.619 E8.74451
G1 X67.517 Y92.861 E8.83379
G1 X68.142 Y91.192 E8.92321
G1 X69.058 Y89.745 E9.00918
G1 X69.350 Y89.931 F48000.000
G1 F1800
G1 X70.604 Y88.644 E9.09939
G1 X71.544 Y87.983 E9.15704
G1 X72.587 Y87.450 E9.21583
G1 X73.705 Y87.067 E9.27514
G1 X74.884 Y86.845 E9.33532
G1 X100.003 Y85.329 E10.59825
G1 X102.800 Y85.506 E10.73891
G1 X105.589 Y86.056 E10.88156
G1 X108.343 Y86.992 E11.02755
G1 X110.863 Y88.244 E11.16876
G1 X113.237 Y89.844 E11.31247
G1 X115.393 Y91.762 E11.45723
G1 X117.217 Y93.877 E11.59742
G1 X118.736 Y96.186 E11.73615
G1 X119.393 Y97.739 E11.82074
G1 X119.708 Y99.442 E11.90767
G1 X119.649 Y101.112 E11.99155
G1 X119.226 Y102.753 E12.07659
G1 X118.385 Y104.409 E12.16981
G1 X116.924 Y106.503 E12.29794
G1 X115.356 Y108.275 E12.41670
G1 X113.629 Y109.845 E12.53384
G1 X112.196 Y110.915 E12.62358
G1 X110.661 Y111.871 E12.71436
G1 X109.101 Y112.674 E12.80239
G1 X107.358 Y113.392 E12.89697
G1 X105.601 Y113.941 E12.98936
G1 X103.749 Y114.350 E13.08454
G1 X102.044 Y114.578 E13.17087
G1 X100.188 Y114.670 E13.26416
G1 X74.667 Y113.127 E14.54730
G1 X73.155 Y112.767 E14.62528
G1 X71.720 Y112.121 E14.70428
G1 X70.507 Y111.275 E14.77848
G1 X69.420 Y110.166 E14.85641
G1 X68.746 Y109.198 E14.91559
G1 X68.221 Y108.153 E14.97431
G1 X67.849 Y107.043 E15.03305
G1 X67.636 Y105.913 E15.09078
G1 X67.575 Y104.928 E15.14030
G1 X67.589 Y94.621 E15.65756
G1 X67.854 Y92.936 E15.74318
G1 X68.462 Y91.323 E15.82967
G1 X69.318 Y89.982 E15.90952
G1 X69.609 Y90.168 F48000.000
G1 F1800
G1 X69.666 Y90.079 E15.91484
G1 X70.861 Y88.880 E15.99984
G1 X71.749 Y88.262 E16.05411
G1 X72.751 Y87.755 E16.11044
G1 X73.815 Y87.395 E16.16684
G1 X74.940 Y87.186 E16.22428
G1 X100.005 Y85.674 E17.48445
G1 X102.757 Y85.848 E17.62285
G1 X105.501 Y86.389 E17.76318
G1 X108.211 Y87.310 E17.90686
G1 X110.696 Y88.546 E18.04613
G1 X113.032 Y90.121 E18.18752
G1 X115.152 Y92.009 E18.33002
G1 X116.946 Y94.090 E18.46791
G1 X118.456 Y96.393 E18.60609
G1 X119.094 Y97.946 E18.69038
G1 X119.369 Y99.532 E18.77112
G1 X119.297 Y101.129 E18.85137
G1 X118.863 Y102.737 E18.93495
G1 X117.986 Y104.400 E19.02930
G1 X116.518 Y106.459 E19.15620
G1 X114.915 Y108.228 E19.27602
G1 X113.179 Y109.764 E19.39235
G1 X111.820 Y110.752 E19.47667
G1 X110.201 Y111.733 E19.57166
G1 X108.714 Y112.472 E19.65499
G1 X107.051 Y113.135 E19.74483
G1 X105.281 Y113.669 E19.83761
G1 X103.652 Y114.017 E19.92123
G1 X102.006 Y114.236 E20.00459
G1 X100.160 Y114.326 E20.09731
G1 X74.726 Y112.787 E21.37606
G1 X73.267 Y112.441 E21.45133
G1 X71.877 Y111.813 E21.52787
G1 X70.708 Y110.993 E21.59953
G1 X69.655 Y109.908 E21.67542
G1 X69.024 Y108.991 E21.73130
G1 X68.527 Y107.989 E21.78744
G1 X68.177 Y106.933 E21.84325
G1 X67.974 Y105.835 E21.89927
G1 X67.920 Y104.921 E21.94522
G1 X67.934 Y94.630 E22.46171
G1 X68.191 Y93.011 E22.54398
G1 X68.779 Y91.460 E22.62720
G1 X69.576 Y90.219 E22.70125
G1 E20.70125 F2400.00000
G92 E0
G1 X102.223 Y104.642 F48000.000
G1 E2.00000 F2400.00000
G1 F1800
G1 X102.389 Y104.534 E2.00995
G1 X102.867 Y104.396 E2.03487
G1 X103.026 Y104.325 E2.04362
G1 X103.235 Y104.147 E2.05741
G1 X103.373 Y103.918 E2.07085
G1 X103.591 Y103.346 E2.10157
G1 X103.778 Y102.958 E2.12318
G1 X103.839 Y102.727 E2.13516
G1 X103.795 Y102.505 E2.14651
G1 X103.522 Y101.881 E2.18071
G1 X102.928 Y100.276 E2.26656
G1 X102.628 Y99.547 E2.30615
G1 X102.537 Y99.229 E2.32276
G1 X102.505 Y98.869 E2.34087
G1 X102.560 Y98.600 E2.35468
G1 X102.639 Y98.465 E2.36250
G1 X102.791 Y98.338 E2.37247
G1 X103.051 Y98.271 E2.38594
G1 X103.286 Y98.291 E2.39776
G1 X103.484 Y98.358 E2.40826
G1 X103.676 Y98.483 E2.41977
G1 X103.811 Y98.649 E2.43050
G1 X103.904 Y98.858 E2.44199
G1 X104.090 Y99.505 E2.47576
G1 X104.486 Y100.518 E2.53037
G1 X104.633 Y100.513 E2.53777
G1 X104.755 Y100.110 E2.55888
G1 X105.129 Y99.036 E2.61597
G1 X105.265 Y98.746 E2.63201
G1 X105.417 Y98.524 E2.64553
G1 X105.577 Y98.371 E2.65665
G1 X105.756 Y98.285 E2.66659
G1 X105.946 Y98.274 E2.67618
G1 X106.135 Y98.342 E2.68625
G1 X106.307 Y98.476 E2.69718
G1 X106.442 Y98.656 E2.70848
G1 X106.526 Y98.872 E2.72015
G1 X106.542 Y99.076 E2.73038
G1 X106.474 Y99.359 E2.74501
G1 X106.188 Y100.012 E2.78080
G1 X105.974 Y100.660 E2.81505
G1 X105.022 Y103.319 E2.95679
G1 X104.641 Y104.301 E3.00965
G1 X104.371 Y104.897 E3.04249
G1 X104.254 Y105.094 E3.05395
G1 X104.079 Y105.318 E3.06824
G1 X103.799 Y105.544 E3.08629
G1 X103.530 Y105.677 E3.10139
G1 X103.309 Y105.753 E3.11309
G1 X103.015 Y105.820 E3.12824
G1 X102.770 Y105.831 E3.14053
G1 X102.560 Y105.788 E3.15131
G1 X102.412 Y105.715 E3.15957
G1 X102.224 Y105.519 E3.17321
G1 X102.122 Y105.305 E3.18513
G1 X102.083 Y105.146 E3.19331
G1 X102.074 Y104.997 E3.20082
G1 X102.114 Y104.800 E3.21088
G1 X102.189 Y104.691 E3.21753
G1 X102.174 Y104.450 F48000.000
G1 E1.21753 F2400.00000
G92 E0
G1 X98.695 Y98.417 F48000.000
G1 E2.00000 F2400.00000
G1 F1800
G1 X98.857 Y98.324 E2.00936
G1 X99.119 Y98.266 E2.02285
G1 X99.393 Y98.326 E2.03692
G1 X99.529 Y98.411 E2.04496
G1 X99.694 Y98.571 E2.05648
G1 X99.920 Y98.899 E2.07649
G1 X100.191 Y99.426 E2.10621
G1 X100.367 Y99.027 E2.12810
G1 X100.516 Y98.757 E2.14355
G1 X100.700 Y98.535 E2.15803
G1 X100.887 Y98.380 E2.17019
G1 X101.136 Y98.272 E2.18384
G1 X101.399 Y98.294 E2.19705
G1 X101.634 Y98.444 E2.21106
G1 X101.789 Y98.658 E2.22430
G1 X101.854 Y98.932 E2.23843
G1 X101.778 Y99.233 E2.25401
G1 X101.091 Y100.396 E2.32179
G1 X101.018 Y100.568 E2.33120
G1 X100.994 Y100.698 E2.33783
G1 X101.004 Y100.817 E2.34382
G1 X101.051 Y100.942 E2.35052
G1 X101.734 Y102.079 E2.41705
G1 X101.869 Y102.379 E2.43360
G1 X101.906 Y102.630 E2.44633
G1 X101.877 Y102.864 E2.45813
G1 X101.777 Y103.065 E2.46941
G1 X101.571 Y103.231 E2.48268
G1 X101.354 Y103.301 E2.49413
G1 X101.126 Y103.307 E2.50560
G1 X100.920 Y103.244 E2.51639
G1 X100.753 Y103.119 E2.52687
G1 X100.565 Y102.859 E2.54297
G1 X100.105 Y102.029 E2.59058
G1 X99.936 Y102.401 E2.61106
G1 X99.744 Y102.728 E2.63010
G1 X99.538 Y103.019 E2.64799
G1 X99.374 Y103.182 E2.65962
G1 X99.130 Y103.295 E2.67312
G1 X98.856 Y103.268 E2.68690
G1 X98.604 Y103.129 E2.70132
G1 X98.458 Y102.957 E2.71267
G1 X98.394 Y102.772 E2.72251
G1 X98.389 Y102.625 E2.72990
G1 X98.430 Y102.417 E2.74051
G1 X98.496 Y102.252 E2.74944
G1 X99.023 Y101.327 E2.80287
G1 X99.350 Y100.866 E2.83124
G1 X99.383 Y100.773 E2.83620
G1 X99.351 Y100.667 E2.84174
G1 X99.118 Y100.315 E2.86292
G1 X98.654 Y99.501 E2.90995
G1 X98.559 Y99.309 E2.92070
G1 X98.475 Y99.061 E2.93381
G1 X98.460 Y98.782 E2.94783
G1 X98.561 Y98.548 E2.96063
G1 X98.652 Y98.459 E2.96704
G1 X98.666 Y98.233 F48000.000
G1 E0.96704 F2400.00000
G92 E0
G1 X97.256 Y101.259 F48000.000
G1 E2.00000 F2400.00000
G1 F1800
G1 X97.404 Y101.335 E2.00837
G1 X97.575 Y101.462 E2.01903
G1 X97.722 Y101.618 E2.02980
G1 X97.838 Y101.798 E2.04056
G1 X97.923 Y102.000 E2.05153
G1 X97.978 Y102.306 E2.06714
G1 X97.968 Y102.525 E2.07816
G1 X97.920 Y102.738 E2.08911
G1 X97.787 Y103.019 E2.10470
G1 X97.653 Y103.192 E2.11571
G1 X97.489 Y103.338 E2.12672
G1 X97.217 Y103.490 E2.14234
G1 X97.007 Y103.552 E2.15335
G1 X96.795 Y103.575 E2.16406
G1 X96.581 Y103.560 E2.17480
G1 X96.374 Y103.509 E2.18549
G1 X96.174 Y103.420 E2.19652
G1 X95.924 Y103.233 E2.21216
G1 X95.782 Y103.067 E2.22313
G1 X95.672 Y102.879 E2.23407
G1 X95.576 Y102.583 E2.24971
G1 X95.558 Y102.364 E2.26072
G1 X95.576 Y102.146 E2.27168
G1 X95.672 Y101.850 E2.28731
G1 X95.782 Y101.662 E2.29826
G1 X95.921 Y101.499 E2.30900
G1 X96.087 Y101.364 E2.31972
G1 X96.273 Y101.258 E2.33049
G1 X96.480 Y101.189 E2.34142
G1 X96.733 Y101.155 E2.35424
G1 X97.004 Y101.176 E2.36787
G1 X97.201 Y101.234 E2.37821
G1 X97.386 Y101.156 F48000.000
G1 E0.37821 F2400.00000
G92 E0
G1 X91.246 Y103.060 F48000.000
G1 E2.00000 F2400.00000
G1 F1800
G1 X91.101 Y102.942 E2.00934
G1 X90.993 Y102.765 E2.01977
G1 X90.926 Y102.539 E2.03157
G1 X90.902 Y102.267 E2.04528
G1 X90.920 Y101.665 E2.07553
G1 X90.924 Y98.050 E2.25694
G1 X90.882 Y97.425 E2.28840
G1 X90.957 Y97.151 E2.30264
G1 X91.150 Y96.964 E2.31612
G1 X91.431 Y96.855 E2.33125
G1 X91.728 Y96.824 E2.34624
G1 X93.337 Y96.860 E2.42699
G1 X93.789 Y96.919 E2.44988
G1 X94.259 Y97.042 E2.47426
G1 X94.636 Y97.226 E2.49535
G1 X94.978 Y97.499 E2.51729
G1 X95.248 Y97.815 E2.53813
G1 X95.497 Y98.239 E2.56281
G1 X95.641 Y98.604 E2.58251
G1 X95.716 Y98.873 E2.59653
G1 X95.811 Y99.473 E2.62703
G1 X95.831 Y99.980 E2.65247
G1 X95.817 Y100.334 E2.67026
G1 X95.725 Y100.969 E2.70243
G1 X95.556 Y101.511 E2.73093
G1 X95.441 Y101.759 E2.74466
G1 X95.242 Y102.080 E2.76359
G1 X95.010 Y102.355 E2.78170
G1 X94.827 Y102.523 E2.79414
G1 X94.637 Y102.667 E2.80611
G1 X94.335 Y102.837 E2.82347
G1 X93.909 Y102.981 E2.84604
G1 X93.372 Y103.067 E2.87336
G1 X92.850 Y103.094 E2.89959
G1 X92.032 Y103.086 E2.94062
G1 X91.588 Y103.128 E2.96303
G1 X91.382 Y103.111 E2.97339
G1 X91.302 Y103.081 E2.97769
G1 X91.085 Y103.153 F48000.000
G1 E0.97769 F2400.00000
G92 E0
G1 X86.807 Y98.416 F48000.000
G1 E2.00000 F2400.00000
G1 F1800
G1 X86.617 Y98.434 E2.00956
G1 X86.423 Y98.371 E2.01979
G1 X86.225 Y98.216 E2.03241
G1 X86.084 Y98.019 E2.04454
G1 X86.002 Y97.796 E2.05649
G1 X85.994 Y97.576 E2.06754
G1 X86.091 Y97.329 E2.08087
G1 X86.243 Y97.149 E2.09269
G1 X86.453 Y96.991 E2.10588
G1 X86.730 Y96.847 E2.12154
G1 X87.039 Y96.743 E2.13791
G1 X87.384 Y96.681 E2.15551
G1 X87.653 Y96.662 E2.16900
G1 X87.988 Y96.666 E2.18584
G1 X88.269 Y96.696 E2.20002
G1 X88.595 Y96.767 E2.21676
G1 X88.800 Y96.840 E2.22768
G1 X89.061 Y96.980 E2.24257
G1 X89.221 Y97.103 E2.25267
G1 X89.416 Y97.314 E2.26707
G1 X89.563 Y97.555 E2.28128
G1 X89.661 Y97.889 E2.29871
G1 X89.679 Y98.185 E2.31362
G1 X89.642 Y98.677 E2.33835
G1 X89.554 Y99.002 E2.35529
G1 X89.429 Y99.205 E2.36727
G1 X89.254 Y99.365 E2.37916
G1 X88.997 Y99.510 E2.39393
G1 X89.230 Y99.608 E2.40660
G1 X89.366 Y99.698 E2.41476
G1 X89.524 Y99.863 E2.42624
G1 X89.677 Y100.149 E2.44253
G1 X89.807 Y100.557 E2.46401
G1 X89.893 Y100.920 E2.48273
G1 X89.923 Y101.233 E2.49851
G1 X89.878 Y101.638 E2.51899
G1 X89.737 Y102.061 E2.54133
G1 X89.567 Y102.369 E2.55899
G1 X89.286 Y102.707 E2.58105
G1 X88.947 Y102.968 E2.60253
G1 X88.648 Y103.115 E2.61925
G1 X88.234 Y103.228 E2.64081
G1 X87.859 Y103.265 E2.65969
G1 X87.446 Y103.259 E2.68041
G1 X87.079 Y103.208 E2.69904
G1 X86.775 Y103.123 E2.71487
G1 X86.516 Y103.007 E2.72910
G1 X86.304 Y102.858 E2.74211
G1 X86.139 Y102.666 E2.75481
G1 X86.020 Y102.394 E2.76972
G1 X85.989 Y102.142 E2.78245
G1 X86.049 Y101.853 E2.79727
G1 X86.177 Y101.670 E2.80850
G1 X86.406 Y101.526 E2.82205
G1 X86.707 Y101.473 E2.83741
G1 X86.954 Y101.501 E2.84989
G1 X87.156 Y101.575 E2.86065
G1 X87.586 Y101.884 E2.88724
G1 X87.690 Y101.938 E2.89316
G1 X87.828 Y101.957 E2.90015
G1 X87.948 Y101.937 E2.90624
G1 X88.142 Y101.843 E2.91706
G1 X88.254 Y101.745 E2.92456
G1 X88.340 Y101.621 E2.93210
G1 X88.394 Y101.480 E2.93970
G1 X88.415 Y101.268 E2.95037
G1 X88.370 Y101.060 E2.96105
G1 X88.250 Y100.835 E2.97387
G1 X88.113 Y100.677 E2.98435
G1 X87.947 Y100.546 E2.99499
G1 X87.759 Y100.451 E3.00554
G1 X87.625 Y100.407 E3.01262
G1 X87.131 Y100.316 E3.03785
G1 X86.929 Y100.239 E3.04865
G1 X86.749 Y100.068 E3.06111
G1 X86.679 Y99.869 E3.07174
G1 X86.675 Y99.646 E3.08291
G1 X86.732 Y99.417 E3.09476
G1 X86.808 Y99.264 E3.10334
G1 X86.956 Y99.093 E3.11465
G1 X87.198 Y98.974 E3.12822
G1 X87.653 Y98.897 E3.15137
G1 X87.803 Y98.846 E3.15931
G1 X87.927 Y98.767 E3.16669
G1 X88.028 Y98.660 E3.17409
G1 X88.094 Y98.544 E3.18078
G1 X88.119 Y98.436 E3.18634
G1 X88.104 Y98.273 E3.19457
G1 X88.059 Y98.165 E3.20044
G1 X87.988 Y98.077 E3.20609
G1 X87.908 Y98.024 E3.21092
G1 X87.808 Y97.993 E3.21620
G1 X87.679 Y97.990 E3.22265
G1 X87.458 Y98.046 E3.23409
G1 X86.951 Y98.360 E3.26402
G1 X86.862 Y98.394 E3.26879
G1 X86.752 Y98.599 F48000.000
G1 E1.26879 F2400.00000
G92 E0
G1 X85.114 Y96.936 F48000.000
G1 E2.00000 F2400.00000
G1 F1800
G1 X85.224 Y97.034 E2.00741
G1 X85.322 Y97.211 E2.01756
G1 X85.369 Y97.503 E2.03241
G1 X85.327 Y97.770 E2.04592
G1 X85.225 Y97.961 E2.05682
G1 X85.024 Y98.114 E2.06950
G1 X84.812 Y98.181 E2.08066
G1 X84.485 Y98.215 E2.09717
G1 X83.557 Y98.201 E2.14374
G1 X83.453 Y98.233 E2.14921
G1 X83.436 Y98.451 E2.16017
G1 X83.453 Y102.364 E2.35657
G1 X83.408 Y102.613 E2.36926
G1 X83.320 Y102.816 E2.38036
G1 X83.173 Y102.982 E2.39146
G1 X82.986 Y103.084 E2.40217
G1 X82.694 Y103.123 E2.41694
G1 X82.383 Y103.053 E2.43295
G1 X82.173 Y102.900 E2.44601
G1 X82.094 Y102.767 E2.45378
G1 X82.050 Y102.576 E2.46362
G1 X82.089 Y101.928 E2.49617
G1 X82.072 Y99.145 E2.63585
G1 X82.108 Y98.581 E2.66421
G1 X82.083 Y98.403 E2.67322
G1 X82.004 Y98.292 E2.68006
G1 X81.911 Y98.230 E2.68568
G1 X81.684 Y98.178 E2.69737
G1 X80.819 Y98.255 E2.74097
G1 X80.602 Y98.216 E2.75202
G1 X80.388 Y98.078 E2.76482
G1 X80.265 Y97.894 E2.77590
G1 X80.197 Y97.678 E2.78727
G1 X80.189 Y97.443 E2.79908
G1 X80.244 Y97.218 E2.81069
G1 X80.359 Y97.025 E2.82199
G1 X80.524 Y96.887 E2.83280
G1 X80.692 Y96.822 E2.84182
G1 X80.880 Y96.803 E2.85127
G1 X81.485 Y96.846 E2.88172
G1 X84.794 Y96.835 E3.04778
G1 X84.946 Y96.860 E3.05552
G1 X85.060 Y96.911 E3.06178
G1 X85.247 Y96.871 F48000.000
G1 E1.06178 F2400.00000
G92 E0
G1 X79.554 Y97.927 F48000.000
G1 E2.00000 F2400.00000
G1 F1800
G1 X79.528 Y98.078 E2.00767
G1 X79.442 Y98.275 E2.01846
G1 X79.337 Y98.411 E2.02707
G1 X79.162 Y98.545 E2.03814
G1 X78.953 Y98.609 E2.04909
G1 X78.741 Y98.597 E2.05979
G1 X78.511 Y98.525 E2.07186
G1 X77.821 Y98.135 E2.11165
G1 X77.671 Y98.090 E2.11950
G1 X77.546 Y98.079 E2.12580
G1 X77.261 Y98.111 E2.14018
G1 X77.051 Y98.182 E2.15132
G1 X76.860 Y98.288 E2.16230
G1 X76.704 Y98.421 E2.17256
G1 X76.533 Y98.651 E2.18694
G1 X76.430 Y98.874 E2.19929
G1 X76.349 Y99.149 E2.21368
G1 X76.296 Y99.484 E2.23071
G1 X76.272 Y99.922 E2.25268
G1 X76.291 Y100.398 E2.27661
G1 X76.340 Y100.745 E2.29420
G1 X76.423 Y101.042 E2.30971
