;FLAVOR:UltiGCode
;TIME:2752
;MATERIAL:6473
;MATERIAL2:0

;Layer count: 479
;LAYER:0
M107
M104 S210
G0 F9000 X100.178 Y105.470 Z0.300
G0 X99.858 Y105.873
;TYPE:SKIRT
G1 F1800 X100.178 Y105.470 E0.07719
G1 X101.748 Y104.014 E0.39837
G1 X102.124 Y103.665 E0.47532
G1 X104.319 Y102.167 E0.87394
G1 X106.711 Y101.016 E1.27212
G1 X109.249 Y100.233 E1.67052
G1 X111.348 Y99.917 E1.98892
G1 X111.866 Y99.837 E2.06754
G1 X114.526 Y99.837 E2.46654
G1 X116.646 Y100.156 E2.78812
G1 X117.157 Y100.235 E2.86568
G1 X119.198 Y100.864 E3.18604
G1 X119.692 Y101.017 E3.26362
G1 X121.616 Y101.944 E3.58397
G1 X122.082 Y102.169 E3.66159
G1 X124.272 Y103.663 E4.05925
G1 X125.841 Y105.118 E4.38022
G1 X126.220 Y105.470 E4.45781
G1 X127.553 Y107.142 E4.77856
G1 X127.875 Y107.547 E4.85617
G1 X128.940 Y109.392 E5.17571
G1 X129.199 Y109.841 E5.25347
G1 X129.977 Y111.822 E5.57271
G1 X130.169 Y112.308 E5.65109
G1 X130.644 Y114.389 E5.97127
G1 X130.761 Y114.897 E6.04947
G1 X130.920 Y117.026 E6.36971
G1 X130.960 Y117.543 E6.44749
G1 X130.800 Y119.682 E6.76923
G1 X130.761 Y120.197 E6.84671
G1 X130.285 Y122.282 E7.16750
G1 X130.169 Y122.786 E7.24508
G1 X129.388 Y124.776 E7.56574
G1 X129.198 Y125.258 E7.64346
G1 X128.131 Y127.106 E7.96355
G1 X127.872 Y127.553 E8.04104
G1 X126.541 Y129.223 E8.36137
G1 X126.221 Y129.626 E8.43856
G1 X124.651 Y131.082 E8.75974
G1 X124.275 Y131.431 E8.83669
G1 X122.079 Y132.929 E9.23543
G1 X120.154 Y133.856 E9.55592
G1 X119.689 Y134.080 E9.63334
G1 X117.653 Y134.707 E9.95289
G1 X117.155 Y134.862 E10.03113
G1 X115.052 Y135.178 E10.35012
G1 X114.534 Y135.258 E10.42874
G1 X111.874 Y135.258 E10.82774
G1 X109.753 Y134.939 E11.14947
G1 X109.243 Y134.860 E11.22688
G1 X107.202 Y134.232 E11.54720
G1 X106.707 Y134.079 E11.62491
G1 X104.783 Y133.152 E11.94526
G1 X104.317 Y132.927 E12.02288
G1 X102.127 Y131.433 E12.42054
G1 X100.558 Y129.978 E12.74151
G1 X100.179 Y129.626 E12.81910
G1 X98.846 Y127.954 E13.13985
G1 X98.525 Y127.550 E13.21725
G1 X97.457 Y125.702 E13.53741
G1 X97.198 Y125.255 E13.61491
G1 X96.416 Y123.261 E13.93619
G1 X96.228 Y122.780 E14.01365
G1 X95.753 Y120.698 E14.33397
G1 X95.638 Y120.198 E14.41093
G1 X95.478 Y118.061 E14.73238
G1 X95.439 Y117.551 E14.80910
G1 X95.599 Y115.413 E15.13070
G1 X95.638 Y114.898 E15.20817
G1 X96.114 Y112.813 E15.52897
G1 X96.230 Y112.309 E15.60654
G1 X97.009 Y110.324 E15.92640
G1 X97.197 Y109.844 E16.00373
G1 X98.268 Y107.989 E16.32502
G1 X98.527 Y107.543 E16.40239
G1 X99.858 Y105.873 E16.72272
G0 F9000 X100.245 Y106.189
G1 F1800 X100.546 Y105.811 E16.79520
G1 X102.088 Y104.381 E17.11065
G1 X102.437 Y104.056 E17.18218
G1 X104.570 Y102.602 E17.56940
G1 X106.894 Y101.482 E17.95637
G1 X109.360 Y100.721 E18.34348
G1 X111.438 Y100.409 E18.65867
G1 X111.904 Y100.337 E18.72940
G1 X114.489 Y100.337 E19.11715
G1 X116.571 Y100.650 E19.43296
G1 X117.045 Y100.723 E19.50490
G1 X119.050 Y101.341 E19.81961
G1 X119.508 Y101.484 E19.89158
G1 X121.398 Y102.394 E20.20623
G1 X121.831 Y102.603 E20.27835
G1 X123.960 Y104.055 E20.66490
G1 X125.501 Y105.484 E20.98014
G1 X125.853 Y105.811 E21.05221
G1 X127.162 Y107.453 E21.36720
G1 X127.460 Y107.829 E21.43916
G1 X128.509 Y109.645 E21.75375
G1 X128.508 Y109.645 E21.75390
G1 X128.748 Y110.059 E21.82568
G1 X129.512 Y112.006 E22.13941
G1 X129.690 Y112.456 E22.21199
G1 X130.157 Y114.501 E22.52664
G1 X130.266 Y114.972 E22.59916
G1 X130.422 Y117.064 E22.91383
G1 X130.458 Y117.544 E22.98603
G1 X130.302 Y119.644 E23.30190
G1 X130.265 Y120.122 E23.37381
G1 X129.798 Y122.170 E23.68890
G1 X129.690 Y122.638 E23.76094
G1 X128.923 Y124.593 E24.07596
G1 X128.746 Y125.039 E24.14793
G1 X127.698 Y126.856 E24.46257
G1 X127.458 Y127.271 E24.53448
G1 X126.154 Y128.907 E24.84829
G1 X125.853 Y129.285 E24.92077
G1 X124.311 Y130.715 E25.23623
G1 X123.962 Y131.040 E25.30776
G1 X121.829 Y132.495 E25.69506
G1 X119.942 Y133.403 E26.00917
G1 X119.506 Y133.614 E26.08183
G1 X117.495 Y134.232 E26.39740
G1 X117.043 Y134.373 E26.46842
G1 X114.962 Y134.686 E26.78408
G1 X114.496 Y134.758 E26.85481
G1 X111.911 Y134.758 E27.24256
G1 X109.828 Y134.445 E27.55852
G1 X109.355 Y134.372 E27.63031
G1 X107.349 Y133.755 E27.94512
G1 X106.891 Y133.612 E28.01709
G1 X105.001 Y132.702 E28.33174
G1 X104.568 Y132.493 E28.40386
G1 X102.439 Y131.041 E28.79041
G1 X100.898 Y129.612 E29.10565
G1 X100.546 Y129.285 E29.17772
G1 X99.237 Y127.643 E29.49271
G1 X98.939 Y127.268 E29.56456
G1 X97.890 Y125.452 E29.87914
G1 X97.650 Y125.037 E29.95105
G1 X96.882 Y123.079 E30.26653
G1 X96.707 Y122.632 E30.33854
G1 X96.240 Y120.587 E30.65319
G1 X96.133 Y120.122 E30.72476
G1 X95.977 Y118.024 E31.04033
G1 X95.941 Y117.550 E31.11163
G1 X96.097 Y115.451 E31.42735
G1 X96.134 Y114.973 E31.49926
G1 X96.601 Y112.925 E31.81435
G1 X96.709 Y112.457 E31.88639
G1 X97.475 Y110.506 E32.20079
G1 X97.649 Y110.061 E32.27246
G1 X98.701 Y108.239 E32.58805
G1 X98.941 Y107.825 E32.65983
G1 X100.245 Y106.189 E32.97365
G10
G0 F9000 X103.377 Y108.678
;TYPE:WALL-INNER
G11
G1 F1800 X103.489 Y108.537 E33.00066
G1 X104.808 Y107.313 E33.27057
G1 X104.937 Y107.194 E33.29690
G1 X106.579 Y106.074 E33.59504
G1 X108.359 Y105.217 E33.89137
G1 X110.253 Y104.632 E34.18871
G1 X112.034 Y104.364 E34.45887
G1 X112.210 Y104.337 E34.48558
G1 X114.187 Y104.337 E34.78213
G1 X115.969 Y104.605 E35.05244
G1 X116.143 Y104.631 E35.07883
G1 X117.868 Y105.163 E35.34960
G1 X118.038 Y105.215 E35.37627
G1 X119.659 Y105.996 E35.64617
G1 X119.819 Y106.073 E35.67280
G1 X121.462 Y107.193 E35.97107
G1 X122.778 Y108.414 E36.24034
G1 X122.911 Y108.537 E36.26752
G1 X124.032 Y109.944 E36.53736
G1 X124.143 Y110.083 E36.56405
G1 X125.136 Y111.804 E36.86209
G1 X125.792 Y113.476 E37.13150
G1 X125.859 Y113.643 E37.15849
G1 X126.259 Y115.399 E37.42864
G1 X126.299 Y115.573 E37.45542
G1 X126.433 Y117.369 E37.72557
G1 X126.447 Y117.547 E37.75235
G1 X126.313 Y119.342 E38.02235
G1 X126.299 Y119.524 E38.04973
G1 X125.899 Y121.276 E38.31929
G1 X125.858 Y121.453 E38.34654
G1 X125.202 Y123.126 E38.61610
G1 X125.137 Y123.290 E38.64256
G1 X124.143 Y125.013 E38.94093
G1 X123.022 Y126.418 E39.21054
G1 X122.910 Y126.559 E39.23755
G1 X121.591 Y127.783 E39.50747
G1 X121.462 Y127.902 E39.53379
G1 X119.820 Y129.022 E39.83193
G1 X118.201 Y129.802 E40.10150
G1 X118.041 Y129.879 E40.12813
G1 X116.317 Y130.410 E40.39872
G1 X116.149 Y130.462 E40.42510
G1 X114.366 Y130.731 E40.69558
G1 X114.190 Y130.758 E40.72229
G1 X112.212 Y130.758 E41.01899
G1 X110.429 Y130.490 E41.28944
G1 X110.256 Y130.464 E41.31568
G1 X108.531 Y129.933 E41.58641
G1 X108.361 Y129.881 E41.61308
G1 X106.738 Y129.099 E41.88332
G1 X106.580 Y129.023 E41.90961
G1 X104.937 Y127.903 E42.20788
G1 X103.620 Y126.681 E42.47737
G1 X103.488 Y126.559 E42.50433
G1 X102.366 Y125.151 E42.77439
G1 X102.252 Y125.008 E42.80182
G1 X101.264 Y123.298 E43.09805
G1 X100.541 Y121.452 E43.39543
G1 X100.140 Y119.696 E43.66561
G1 X100.100 Y119.522 E43.69240
G1 X99.966 Y117.725 E43.96269
G1 X99.952 Y117.546 E43.98963
G1 X100.086 Y115.753 E44.25933
G1 X100.100 Y115.571 E44.28671
G1 X100.500 Y113.819 E44.55627
G1 X100.541 Y113.642 E44.58352
G1 X101.198 Y111.968 E44.85327
G1 X101.266 Y111.796 E44.88101
G1 X102.253 Y110.088 E45.17691
G1 X103.377 Y108.678 E45.44739
G0 F9000 X103.120 Y108.197
;TYPE:WALL-OUTER
G1 F1800 X104.624 Y106.802 E45.75509
G1 X106.330 Y105.638 E46.06488
G1 X108.173 Y104.751 E46.37168
G1 X110.144 Y104.143 E46.68108
G1 X111.959 Y103.870 E46.95639
G1 X112.173 Y103.837 E46.98887
G1 X114.229 Y103.837 E47.29727
G1 X116.043 Y104.110 E47.57244
G1 X116.256 Y104.143 E47.60477
G1 X118.226 Y104.751 E47.91402
G1 X120.069 Y105.638 E48.22082
G1 X121.775 Y106.802 E48.53061
G1 X123.279 Y108.197 E48.83832
G1 X124.556 Y109.799 E49.14562
G1 X125.587 Y111.585 E49.45495
G1 X126.337 Y113.494 E49.76261
G1 X126.796 Y115.502 E50.07158
G1 X126.949 Y117.547 E50.37919
G1 X126.796 Y119.593 E50.68694
G1 X126.337 Y121.601 E50.99591
G1 X125.587 Y123.511 E51.30371
G1 X124.556 Y125.297 E51.61304
G1 X123.279 Y126.899 E51.92034
G1 X121.775 Y128.294 E52.22805
G1 X120.069 Y129.458 E52.53784
G1 X118.226 Y130.345 E52.84464
G1 X116.255 Y130.952 E53.15399
G1 X114.441 Y131.225 E53.42915
G1 X114.227 Y131.258 E53.46163
G1 X112.171 Y131.258 E53.77003
G1 X110.356 Y130.985 E54.04535
G1 X110.143 Y130.952 E54.07768
G1 X108.173 Y130.345 E54.38689
G1 X106.330 Y129.458 E54.69369
G1 X104.624 Y128.294 E55.00348
G1 X103.120 Y126.899 E55.31118
G1 X101.839 Y125.292 E55.61945
G1 X100.813 Y123.517 E55.92697
G1 X100.062 Y121.601 E56.23566
G1 X99.603 Y119.593 E56.54463
G1 X99.450 Y117.547 E56.85239
G1 X99.603 Y115.502 E57.16000
G1 X100.062 Y113.494 E57.46897
G1 X100.813 Y111.579 E57.77751
G1 X101.839 Y109.804 E58.08504
G1 X103.120 Y108.197 E58.39331
G0 F9000 X103.499 Y108.803
;TYPE:SKIN
G1 F1800 X121.927 Y127.230 E62.30237
G0 F9000 X122.294 Y126.890
G1 F1800 X103.847 Y108.443 E66.21557
G0 F9000 X104.214 Y108.103
G1 F1800 X122.660 Y126.549 E70.12856
G0 F9000 X122.992 Y126.174
G1 F1800 X104.581 Y107.763 E74.03412
G0 F9000 X104.948 Y107.422
G1 F1800 X123.306 Y125.781 E77.92855
G0 F9000 X123.620 Y125.388
G1 F1800 X105.353 Y107.121 E81.80356
G0 F9000 X105.773 Y106.834
G1 F1800 X123.934 Y124.995 E85.65609
G0 F9000 X124.204 Y124.557
G1 F1800 X106.194 Y106.548 E89.47648
G0 F9000 X106.614 Y106.261
G1 F1800 X124.462 Y124.109 E93.26262
G0 F9000 X124.721 Y123.660
G1 F1800 X107.084 Y106.024 E97.00388
G0 F9000 X107.562 Y105.794
G1 F1800 X124.979 Y123.211 E100.69859
G0 F9000 X125.179 Y122.704
G1 F1800 X108.039 Y105.564 E104.33453
G0 F9000 X108.529 Y105.347
G1 F1800 X125.378 Y122.196 E107.90874
G0 F9000 X125.577 Y121.688
G1 F1800 X109.070 Y105.181 E111.41041
G0 F9000 X109.610 Y105.014
G1 F1800 X125.747 Y121.151 E114.83358
G0 F9000 X125.878 Y120.575
G1 F1800 X110.150 Y104.847 E118.16999
G0 F9000 X110.745 Y104.735
G1 F1800 X126.009 Y119.999 E121.40798
G0 F9000 X126.131 Y119.414
G1 F1800 X111.360 Y104.642 E124.54149
G0 F9000 X111.973 Y104.549
G1 F1800 X126.181 Y118.756 E127.55535
G0 F9000 X126.229 Y118.098
G1 F1800 X112.643 Y104.511 E130.43748
G0 F9000 X113.350 Y104.511
G1 F1800 X126.261 Y117.422 E133.17632
G0 F9000 X126.204 Y116.658
G1 F1800 X114.057 Y104.511 E135.75309
G0 F9000 X114.870 Y104.617
G1 F1800 X126.147 Y115.894 E138.14530
G0 F9000 X125.996 Y115.036
G1 F1800 X115.703 Y104.743 E140.32878
G0 F9000 X116.634 Y104.967
G1 F1800 X125.787 Y114.120 E142.27042
G0 F9000 X125.445 Y113.071
G1 F1800 X117.656 Y105.281 E143.92282
G0 F9000 X118.912 Y105.831
G1 F1800 X124.987 Y111.906 E145.21152
G0 F9000 X124.032 Y110.243
G1 F1800 X120.621 Y106.833 E145.93500
G0 F9000 X103.185 Y109.196
G1 F1800 X121.560 Y127.571 E149.83293
G0 F9000 X121.170 Y127.888
G1 F1800 X102.872 Y109.590 E153.71452
G0 F9000 X102.558 Y109.983
G1 F1800 X120.749 Y128.174 E157.57341
G0 F9000 X120.329 Y128.460
G1 F1800 X102.271 Y110.403 E161.40399
G0 F9000 X102.012 Y110.851
G1 F1800 X119.909 Y128.747 E165.20041
G0 F9000 X119.455 Y129.001
G1 F1800 X101.752 Y111.298 E168.95578
G0 F9000 X101.493 Y111.746
G1 F1800 X118.978 Y129.231 E172.66491
G0 F9000 X118.501 Y129.461
G1 F1800 X101.278 Y112.238 E176.31846
G0 F9000 X101.079 Y112.746
G1 F1800 X118.024 Y129.691 E179.91304
G0 F9000 X117.490 Y129.864
G1 F1800 X100.880 Y113.254 E183.43655
G0 F9000 X100.690 Y113.772
G1 F1800 X116.949 Y130.030 E186.88550
G0 F9000 X116.408 Y130.196
G1 F1800 X100.559 Y114.347 E190.24758
G0 F9000 X100.427 Y114.923
G1 F1800 X115.835 Y130.331 E193.51611
G0 F9000 X115.220 Y130.423
G1 F1800 X100.296 Y115.498 E196.68207
G0 F9000 X100.231 Y116.141
G1 F1800 X114.607 Y130.517 E199.73168
G0 F9000 X113.965 Y130.582
G1 F1800 X100.182 Y116.799 E202.65550
G0 F9000 X100.133 Y117.457
G1 F1800 X113.258 Y130.582 E205.43973
G0 F9000 X112.550 Y130.582
G1 F1800 X100.176 Y118.207 E208.06476
G0 F9000 X100.233 Y118.972
G1 F1800 X111.775 Y130.514 E210.51319
G0 F9000 X110.943 Y130.389
G1 F1800 X100.340 Y119.786 E212.76243
G0 F9000 X100.549 Y120.701
G1 F1800 X110.068 Y130.221 E214.78182
G0 F9000 X109.048 Y129.908
G1 F1800 X100.816 Y121.676 E216.52809
G0 F9000 X101.270 Y122.837
G1 F1800 X107.894 Y129.461 E217.93325
G0 F9000 X106.442 Y128.716
G1 F1800 X102.070 Y124.344 E218.86069
;LAYER:1
M106 S127
G0 F9000 X101.432 Y123.586 Z0.450
;TYPE:WALL-INNER
G1 F2520 X101.263 Y123.294 E218.88599
G1 X100.541 Y121.452 E219.03438
G1 X100.175 Y119.850 E219.15762
G1 X100.100 Y119.522 E219.18286
G1 X99.978 Y117.883 E219.30612
G1 X99.952 Y117.546 E219.33147
G1 X100.074 Y115.910 E219.45451
G1 X100.100 Y115.571 E219.48001
G1 X100.465 Y113.972 E219.60302
G1 X100.541 Y113.642 E219.62842
G1 X101.264 Y111.798 E219.77697
G1 X102.085 Y110.378 E219.89999
G1 X102.254 Y110.086 E219.92530
G1 X103.489 Y108.537 E220.07388
G1 X104.940 Y107.191 E220.22231
G1 X106.576 Y106.076 E220.37080
G1 X108.359 Y105.217 E220.51924
G1 X110.252 Y104.633 E220.66781
G1 X111.878 Y104.388 E220.79114
G1 X112.209 Y104.337 E220.81626
G1 X114.187 Y104.337 E220.96461
G1 X115.814 Y104.582 E221.08801
G1 X116.141 Y104.631 E221.11281
G1 X118.041 Y105.217 E221.26193
G1 X119.520 Y105.929 E221.38504
G1 X119.820 Y106.074 E221.41003
G1 X121.459 Y107.191 E221.55879
G1 X122.910 Y108.537 E221.70723
G1 X124.143 Y110.084 E221.85559
G1 X124.966 Y111.509 E221.97901
G1 X125.135 Y111.802 E222.00438
G1 X125.859 Y113.643 E222.15275
G1 X126.224 Y115.245 E222.27598
G1 X126.299 Y115.573 E222.30121
G1 X126.421 Y117.211 E222.42440
G1 X126.447 Y117.547 E222.44968
G1 X126.325 Y119.185 E222.57287
G1 X126.299 Y119.524 E222.59837
G1 X125.934 Y121.123 E222.72138
G1 X125.858 Y121.453 E222.74678
G1 X125.136 Y123.292 E222.89495
G1 X124.314 Y124.718 E223.01840
G1 X124.145 Y125.010 E223.04370
G1 X122.910 Y126.559 E223.19228
G1 X121.459 Y127.905 E223.34072
G1 X119.823 Y129.020 E223.48921
G1 X118.342 Y129.733 E223.61248
G1 X118.042 Y129.879 E223.63751
G1 X116.468 Y130.363 E223.76101
G1 X116.145 Y130.463 E223.78637
G1 X114.522 Y130.707 E223.90946
G1 X114.191 Y130.758 E223.93458
G1 X112.213 Y130.758 E224.08293
G1 X110.585 Y130.513 E224.20641
G1 X110.257 Y130.464 E224.23128
G1 X108.682 Y129.979 E224.35488
G1 X108.357 Y129.878 E224.38040
G1 X106.879 Y129.167 E224.50341
G1 X106.579 Y129.022 E224.52840
G1 X104.940 Y127.905 E224.67716
G1 X103.489 Y126.559 E224.82560
G1 X102.252 Y125.008 E224.97439
G1 X101.432 Y123.586 E225.09750
G0 F9000 X100.813 Y123.517
;TYPE:WALL-OUTER
G1 F1920 X100.062 Y121.601 E225.25185
G1 X99.603 Y119.593 E225.40633
G1 X99.450 Y117.547 E225.56021
G1 X99.603 Y115.502 E225.71401
G1 X100.062 Y113.494 E225.86850
G1 X100.813 Y111.579 E226.02277
G1 X101.837 Y109.808 E226.17620
G1 X103.124 Y108.193 E226.33108
G1 X104.624 Y106.802 E226.48451
G1 X106.330 Y105.638 E226.63940
G1 X108.173 Y104.751 E226.79281
G1 X110.144 Y104.143 E226.94750
G1 X112.171 Y103.837 E227.10125
G1 X114.229 Y103.837 E227.25560
G1 X116.255 Y104.143 E227.40927
G1 X118.226 Y104.751 E227.56397
G1 X120.069 Y105.638 E227.71737
G1 X121.775 Y106.802 E227.87227
G1 X123.275 Y108.193 E228.02570
G1 X124.559 Y109.804 E228.18020
G1 X125.587 Y111.585 E228.33443
G1 X126.337 Y113.494 E228.48826
G1 X126.796 Y115.502 E228.64275
G1 X126.949 Y117.547 E228.79655
G1 X126.796 Y119.593 E228.95043
G1 X126.337 Y121.601 E229.10491
G1 X125.587 Y123.511 E229.25881
G1 X124.559 Y125.292 E229.41304
G1 X123.275 Y126.903 E229.56755
G1 X121.775 Y128.294 E229.72097
G1 X120.069 Y129.458 E229.87587
G1 X118.226 Y130.345 E230.02927
G1 X116.255 Y130.952 E230.18395
G1 X114.229 Y131.258 E230.33762
G1 X112.171 Y131.258 E230.49197
G1 X110.144 Y130.952 E230.64572
G1 X108.173 Y130.345 E230.80039
G1 X106.330 Y129.458 E230.95379
G1 X104.624 Y128.294 E231.10869
G1 X103.124 Y126.903 E231.26212
G1 X101.837 Y125.288 E231.41700
G1 X100.813 Y123.517 E231.57043
G0 F9000 X101.383 Y123.122
;TYPE:SKIN
G1 F1740 X118.752 Y105.753 E233.41269
G0 F9000 X118.275 Y105.523
G1 F1740 X101.184 Y122.614 E235.22546
G0 F9000 X100.986 Y122.106
G1 F1740 X117.774 Y105.317 E237.00615
G0 F9000 X117.234 Y105.151
G1 F1740 X100.786 Y121.598 E238.75067
G0 F9000 X100.629 Y121.048
G1 F1740 X116.693 Y104.984 E240.45452
G0 F9000 X116.152 Y104.817
G1 F1740 X100.497 Y120.473 E242.11503
G0 F9000 X101.631 Y123.581
G1 F1740 X119.230 Y105.983 E243.98164
G0 F9000 X119.707 Y106.213
G1 F1740 X101.890 Y124.030 E245.87141
