;FLAVOR:Marlin
;TIME:9918
;Filament used: 6.31893m
;Layer height: 0.15
;MINX:82.725
;MINY:74.626
;MINZ:0.3
;MAXX:117.275
;MAXY:125.374
;MAXZ:70.2
;POSTPROCESSED
;Generated with Cura_SteamEngine 4.5.0
M140 S50
M105
M190 S50
M104 S195
M105
M109 S195
M82 ;absolute extrusion mode
G21 ;metric values
 G90 ;absolute positioning
 M82 ;set extruder to absolute mode
 M107 ;start with the fan off
 G28 X0 Y0 ;move X/Y to min endstops
 G28 Z0 ;move Z to min endstops
 G1 Z15.0 F80.0 ;move the platform down 15mm
 G92 E0 ;zero the extruded length
 G1 F200 E6 ;extrude 6 mm of feed stock
 G92 E0 ;zero the extruded length again
 G1 F80.0
 ;Put printing message on LCD screen
 M117 Printing...
G92 E0
G92 E0
G1 F1500 E-7
;LAYER_COUNT:467
m109 s195
;LAYER:0
M107
M204 S5000
M205 X30 Y30
G0 F2400 X83.076 Y75.328 Z0.3
M204 S3000
M205 X20 Y20
;TYPE:SKIRT
G1 F1500 E0
G1 F1800 X83.331 Y75.055 E0.0233
G1 X83.637 Y74.841 E0.04658
G1 X83.982 Y74.698 E0.06987
G1 X84.478 Y74.626 E0.10113
G1 X115.522 Y74.626 E2.03712
G1 X116.248 Y74.784 E2.08345
G1 X116.57 Y74.974 E2.10677
G1 X116.843 Y75.228 E2.13002
G1 X117.057 Y75.535 E2.15336
G1 X117.2 Y75.88 E2.17665
G1 X117.272 Y76.376 E2.20791
G1 X117.275 Y123.624 E5.15442
G1 X117.235 Y123.995 E5.17769
G1 X117.117 Y124.35 E5.20102
G1 X116.927 Y124.671 E5.22429
G1 X116.673 Y124.945 E5.24759
G1 X116.366 Y125.159 E5.27092
G1 X116.021 Y125.302 E5.29421
G1 X115.525 Y125.374 E5.32547
G1 X108.53 Y125.374 E5.7617
G1 X108.159 Y125.334 E5.78497
G1 X107.804 Y125.216 E5.8083
G1 X107.482 Y125.026 E5.83161
G1 X107.209 Y124.772 E5.85487
G1 X106.995 Y124.465 E5.87821
G1 X106.852 Y124.12 E5.9015
G1 X106.78 Y123.624 E5.93275
G1 X106.78 Y116.606 E6.37041
G1 X92.723 Y116.606 E7.24705
G1 X92.723 Y123.624 E7.68471
G1 X92.683 Y123.995 E7.70798
G1 X92.565 Y124.35 E7.73131
G1 X92.375 Y124.672 E7.75463
G1 X92.121 Y124.945 E7.77788
G1 X91.814 Y125.159 E7.80122
G1 X91.469 Y125.302 E7.82451
G1 X90.973 Y125.374 E7.85576
G1 X84.475 Y125.374 E8.261
G1 X84.104 Y125.334 E8.28427
G1 X83.749 Y125.216 E8.3076
G1 X83.427 Y125.026 E8.33091
G1 X83.154 Y124.772 E8.35417
G1 X82.94 Y124.465 E8.37751
G1 X82.797 Y124.12 E8.4008
G1 X82.725 Y123.624 E8.43205
G1 X82.728 Y76.376 E11.37857
G1 X82.768 Y76.004 E11.4019
G1 X82.886 Y75.65 E11.42517
G1 X83.076 Y75.328 E11.44849
M204 S5000
M205 X30 Y30
G0 F2400 X83.572 Y75.515
M204 S3000
M205 X20 Y20
G1 F1800 X83.816 Y75.316 E11.46812
G1 X84.103 Y75.184 E11.48782
G1 X84.478 Y75.126 E11.51149
G1 X115.522 Y75.126 E13.44748
G1 X116.128 Y75.283 E13.48652
G1 X116.383 Y75.469 E13.5062
G1 X116.582 Y75.714 E13.52588
G1 X116.714 Y76.001 E13.54558
G1 X116.772 Y76.376 E13.56925
G1 X116.775 Y123.624 E16.51576
G1 X116.735 Y123.937 E16.53544
G1 X116.618 Y124.23 E16.55512
G1 X116.432 Y124.485 E16.5748
G1 X116.187 Y124.684 E16.59448
G1 X115.9 Y124.816 E16.61418
G1 X115.525 Y124.874 E16.63785
G1 X108.53 Y124.874 E17.07408
G1 X108.217 Y124.834 E17.09375
G1 X107.924 Y124.717 E17.11343
G1 X107.669 Y124.531 E17.13311
G1 X107.47 Y124.286 E17.1528
G1 X107.338 Y123.999 E17.1725
G1 X107.28 Y123.624 E17.19616
G1 X107.28 Y116.106 E17.665
G1 X92.223 Y116.106 E18.604
G1 X92.223 Y123.624 E19.07284
G1 X92.183 Y123.937 E19.09252
G1 X92.066 Y124.23 E19.1122
G1 X91.88 Y124.485 E19.13188
G1 X91.635 Y124.684 E19.15156
G1 X91.348 Y124.816 E19.17126
G1 X90.973 Y124.874 E19.19493
G1 X84.475 Y124.874 E19.60016
G1 X84.162 Y124.834 E19.61984
G1 X83.869 Y124.717 E19.63952
G1 X83.614 Y124.531 E19.6592
G1 X83.415 Y124.286 E19.67888
G1 X83.283 Y123.999 E19.69858
G1 X83.225 Y123.624 E19.72225
G1 X83.228 Y76.376 E22.66876
G1 X83.268 Y76.063 E22.68844
G1 X83.385 Y75.77 E22.70812
G1 X83.572 Y75.515 E22.72784
M204 S5000
M205 X30 Y30
G0 F2400 X83.883 Y75.92
M204 S3000
M205 X20 Y20
G1 F1800 X84.061 Y75.753 E22.74306
G1 X84.283 Y75.652 E22.75827
G1 X84.478 Y75.626 E22.77054
G1 X115.522 Y75.626 E24.70653
G1 X115.978 Y75.781 E24.73656
G1 X116.145 Y75.959 E24.75178
G1 X116.246 Y76.181 E24.76699
G1 X116.272 Y76.376 E24.77926
G1 X116.275 Y123.624 E27.72578
G1 X116.235 Y123.865 E27.74101
G1 X116.12 Y124.08 E27.75622
G1 X115.942 Y124.247 E27.77144
G1 X115.72 Y124.348 E27.78665
G1 X115.525 Y124.374 E27.79892
G1 X108.53 Y124.374 E28.23514
G1 X108.289 Y124.334 E28.25038
G1 X108.074 Y124.219 E28.26558
G1 X107.907 Y124.041 E28.28081
G1 X107.806 Y123.819 E28.29602
G1 X107.78 Y123.624 E28.30828
G1 X107.78 Y115.606 E28.80831
G1 X91.723 Y115.606 E29.80967
G1 X91.723 Y123.624 E30.30969
G1 X91.683 Y123.865 E30.32493
G1 X91.568 Y124.08 E30.34013
G1 X91.39 Y124.247 E30.35535
G1 X91.168 Y124.348 E30.37056
G1 X90.973 Y124.374 E30.38283
G1 X84.475 Y124.374 E30.78806
G1 X84.234 Y124.334 E30.8033
G1 X84.019 Y124.219 E30.81851
G1 X83.852 Y124.041 E30.83373
G1 X83.751 Y123.819 E30.84894
G1 X83.725 Y123.624 E30.8612
G1 X83.728 Y76.376 E33.80772
G1 X83.768 Y76.135 E33.82296
G1 X83.883 Y75.92 E33.83816
M204 S5000
M205 X30 Y30
G0 F2400 X84.267 Y76.242
M204 S3000
M205 X20 Y20
G1 F1800 X84.373 Y76.149 E33.84695
G1 X115.522 Y76.126 E35.78949
G1 X115.749 Y76.271 E35.80629
G1 X115.775 Y123.624 E38.75935
G1 X115.736 Y123.758 E38.76806
G1 X115.631 Y123.851 E38.77681
G1 X108.53 Y123.874 E39.21965
G1 X108.396 Y123.835 E39.22835
G1 X108.303 Y123.729 E39.23714
G1 X108.28 Y115.106 E39.7749
G1 X91.223 Y115.106 E40.83862
G1 X91.223 Y123.624 E41.36983
G1 X91.184 Y123.758 E41.37853
G1 X91.078 Y123.851 E41.38732
G1 X84.475 Y123.874 E41.79911
G1 X84.341 Y123.835 E41.80781
G1 X84.248 Y123.729 E41.8166
G1 X84.228 Y76.376 E44.76967
G1 X84.267 Y76.242 E44.77837
M204 S5000
M205 X30 Y30
G1 F1500 E37.77837
;MESH:TempTower_v2.stl
G0 F2400 X85.242 Y77.14
G0 X108.78 Y114.006
G0 X108.78 Y114.606
M204 S3000
M205 X20 Y20
;TYPE:WALL-OUTER
G1 F1500 E44.77837
G1 F1800 X90.723 Y114.606 E45.90446
G1 X90.723 Y123.374 E46.45125
G1 X84.975 Y123.374 E46.80971
G1 X84.725 Y123.374 E46.8253
G1 X84.725 Y123.124 E46.83539
G1 X84.728 Y76.626 E49.73513
G1 X115.272 Y76.626 E51.63994
G1 X115.275 Y123.124 E54.53969
G1 X115.275 Y123.374 E54.55528
G1 X115.025 Y123.374 E54.56536
G1 X108.78 Y123.374 E54.95482
G1 X108.78 Y114.606 E55.50162
M204 S5000
M205 X30 Y30
G0 F2400 X108.58 Y114.606
G0 X109.28 Y114.106
M204 S3000
M205 X20 Y20
;TYPE:WALL-INNER
G1 F1800 X90.223 Y114.106 E56.69006
G1 X90.223 Y122.874 E57.23686
G1 X85.475 Y122.874 E57.53296
G1 X85.225 Y122.874 E57.54855
G1 X85.225 Y122.624 E57.55864
G1 X85.228 Y77.126 E60.39602
G1 X114.772 Y77.126 E62.23846
G1 X114.775 Y122.624 E65.07584
G1 X114.775 Y122.874 E65.09143
G1 X114.525 Y122.874 E65.10152
G1 X109.28 Y122.874 E65.42861
G1 X109.28 Y114.106 E65.97541
M204 S5000
M205 X30 Y30
G0 F2400 X109.77 Y113.616
M204 S3000
M205 X20 Y20
;TYPE:SKIN
G1 F1800 X89.733 Y113.616 E67.22497
G1 X89.733 Y122.384 E67.77177
G1 X85.715 Y122.384 E68.02234
G1 X85.718 Y77.616 E70.8142
G1 X114.282 Y77.616 E72.59553
G1 X114.285 Y122.384 E75.38738
G1 X109.77 Y122.384 E75.66895
G1 X109.77 Y113.616 E76.21575
M204 S5000
M205 X30 Y30
G0 F2400 X90.195 Y114.078
G0 X86.095 Y122.158
M204 S3000
M205 X20 Y20
G1 F1800 X85.94 Y122.002 E76.22946
M204 S5000
M205 X30 Y30
G0 F2400 X85.94 Y121.295
M204 S3000
M205 X20 Y20
G1 F1800 X86.803 Y122.158 E76.30557
M204 S5000
M205 X30 Y30
G0 F2400 X87.51 Y122.158
M204 S3000
M205 X20 Y20
G1 F1800 X85.94 Y120.588 E76.44404
M204 S5000
M205 X30 Y30
G0 F2400 X85.94 Y119.881
M204 S3000
M205 X20 Y20
G1 F1800 X88.217 Y122.158 E76.64486
M204 S5000
M205 X30 Y30
G0 F2400 X88.924 Y122.158
M204 S3000
M205 X20 Y20
G1 F1800 X85.94 Y119.174 E76.90803
M204 S5000
M205 X30 Y30
G0 F2400 X85.94 Y118.467
M204 S3000
M205 X20 Y20
G1 F1800 X89.508 Y122.035 E77.22271
M204 S5000
M205 X30 Y30
G0 F2400 X89.508 Y121.328
M204 S3000
M205 X20 Y20
G1 F1800 X85.94 Y117.76 E77.53738
M204 S5000
M205 X30 Y30
G0 F2400 X85.94 Y117.053
M204 S3000
M205 X20 Y20
G1 F1800 X89.508 Y120.621 E77.85206
M204 S5000
M205 X30 Y30
G0 F2400 X89.508 Y119.913
M204 S3000
M205 X20 Y20
G1 F1800 X85.94 Y116.345 E78.16674
M204 S5000
M205 X30 Y30
G0 F2400 X85.94 Y115.638
M204 S3000
M205 X20 Y20
G1 F1800 X89.508 Y119.206 E78.48141
M204 S5000
M205 X30 Y30
G0 F2400 X89.508 Y118.499
M204 S3000
M205 X20 Y20
G1 F1800 X85.94 Y114.931 E78.79609
M204 S5000
M205 X30 Y30
G0 F2400 X85.94 Y114.224
M204 S3000
M205 X20 Y20
G1 F1800 X89.508 Y117.792 E79.11077
M204 S5000
M205 X30 Y30
G0 F2400 X89.508 Y117.085
M204 S3000
M205 X20 Y20
G1 F1800 X85.94 Y113.517 E79.42544
M204 S5000
M205 X30 Y30
G0 F2400 X85.94 Y112.81
M204 S3000
M205 X20 Y20
G1 F1800 X89.508 Y116.378 E79.74012
M204 S5000
M205 X30 Y30
G0 F2400 X89.508 Y115.671
M204 S3000
M205 X20 Y20
G1 F1800 X85.94 Y112.103 E80.0548
M204 S5000
M205 X30 Y30
G0 F2400 X85.94 Y111.396
M204 S3000
M205 X20 Y20
G1 F1800 X89.508 Y114.964 E80.36948
M204 S5000
M205 X30 Y30
G0 F2400 X89.508 Y114.257
M204 S3000
M205 X20 Y20
G1 F1800 X85.94 Y110.689 E80.68415
M204 S5000
M205 X30 Y30
G0 F2400 X85.94 Y109.981
M204 S3000
M205 X20 Y20
G1 F1800 X89.508 Y113.55 E80.99887
M204 S5000
M205 X30 Y30
G0 F2400 X90.055 Y113.39
M204 S3000
M205 X20 Y20
G1 F1800 X85.94 Y109.274 E81.36184
M204 S5000
M205 X30 Y30
G0 F2400 X85.94 Y108.567
M204 S3000
M205 X20 Y20
G1 F1800 X90.762 Y113.39 E81.78715
M204 S5000
M205 X30 Y30
G0 F2400 X91.469 Y113.39
M204 S3000
M205 X20 Y20
G1 F1800 X85.94 Y107.86 E82.27482
M204 S5000
M205 X30 Y30
G0 F2400 X85.94 Y107.153
M204 S3000
M205 X20 Y20
G1 F1800 X92.177 Y113.39 E82.82489
M204 S5000
M205 X30 Y30
G0 F2400 X92.884 Y113.39
M204 S3000
M205 X20 Y20
G1 F1800 X85.94 Y106.446 E83.43731
M204 S5000
M205 X30 Y30
G0 F2400 X85.94 Y105.739
M204 S3000
M205 X20 Y20
G1 F1800 X93.591 Y113.39 E84.11209
M204 S5000
M205 X30 Y30
G0 F2400 X94.298 Y113.39
M204 S3000
M205 X20 Y20
G1 F1800 X85.94 Y105.032 E84.84921
M204 S5000
M205 X30 Y30
G0 F2400 X85.94 Y104.325
M204 S3000
M205 X20 Y20
G1 F1800 X95.005 Y113.39 E85.6487
M204 S5000
M205 X30 Y30
G0 F2400 X95.712 Y113.39
M204 S3000
M205 X20 Y20
G1 F1800 X85.94 Y103.618 E86.51053
M204 S5000
M205 X30 Y30
G0 F2400 X85.94 Y102.91
M204 S3000
M205 X20 Y20
G1 F1800 X96.419 Y113.39 E87.43476
M204 S5000
M205 X30 Y30
G0 F2400 X97.126 Y113.39
M204 S3000
M205 X20 Y20
G1 F1800 X85.94 Y102.203 E88.42135
M204 S5000
M205 X30 Y30
G0 F2400 X85.94 Y101.496
M204 S3000
M205 X20 Y20
G1 F1800 X97.833 Y113.39 E89.47029
M204 S5000
M205 X30 Y30
G0 F2400 X98.54 Y113.39
M204 S3000
M205 X20 Y20
G1 F1800 X85.94 Y100.789 E90.58158
M204 S5000
M205 X30 Y30
G0 F2400 X85.94 Y100.082
M204 S3000
M205 X20 Y20
G1 F1800 X99.248 Y113.39 E91.75527
M204 S5000
M205 X30 Y30
G0 F2400 X99.955 Y113.39
M204 S3000
M205 X20 Y20
G1 F1800 X85.941 Y99.376 E92.99122
M204 S5000
M205 X30 Y30
G0 F2400 X85.941 Y98.668
M204 S3000
M205 X20 Y20
G1 F1800 X100.662 Y113.39 E94.28957
M204 S5000
M205 X30 Y30
G0 F2400 X101.369 Y113.39
M204 S3000
M205 X20 Y20
G1 F1800 X85.941 Y97.961 E95.65028
M204 S5000
M205 X30 Y30
G0 F2400 X85.941 Y97.254
M204 S3000
M205 X20 Y20
G1 F1800 X102.076 Y113.39 E97.07334
M204 S5000
M205 X30 Y30
G0 F2400 X102.783 Y113.39
M204 S3000
M205 X20 Y20
G1 F1800 X85.941 Y96.547 E98.55875
M204 S5000
M205 X30 Y30
G0 F2400 X85.941 Y95.84
M204 S3000
M205 X20 Y20
G1 F1800 X103.49 Y113.39 E100.10651
M204 S5000
M205 X30 Y30
G0 F2400 X104.197 Y113.39
M204 S3000
M205 X20 Y20
G1 F1800 X85.941 Y95.133 E101.71663
M204 S5000
M205 X30 Y30
G0 F2400 X85.941 Y94.426
M204 S3000
M205 X20 Y20
G1 F1800 X104.904 Y113.39 E103.3891
M204 S5000
M205 X30 Y30
G0 F2400 X105.612 Y113.39
M204 S3000
M205 X20 Y20
G1 F1800 X85.941 Y93.719 E105.12397
M204 S5000
M205 X30 Y30
G0 F2400 X85.941 Y93.012
M204 S3000
M205 X20 Y20
G1 F1800 X106.319 Y113.39 E106.92119
M204 S5000
M205 X30 Y30
G0 F2400 X107.026 Y113.39
M204 S3000
M205 X20 Y20
G1 F1800 X85.941 Y92.305 E108.78077
M204 S5000
M205 X30 Y30
G0 F2400 X85.941 Y91.597
M204 S3000
M205 X20 Y20
G1 F1800 X107.733 Y113.39 E110.70274
M204 S5000
M205 X30 Y30
G0 F2400 X108.44 Y113.39
M204 S3000
M205 X20 Y20
G1 F1800 X85.941 Y90.89 E112.68707
M204 S5000
M205 X30 Y30
G0 F2400 X85.941 Y90.183
M204 S3000
M205 X20 Y20
G1 F1800 X109.147 Y113.39 E114.73375
M204 S5000
M205 X30 Y30
G0 F2400 X109.854 Y113.39
M204 S3000
M205 X20 Y20
G1 F1800 X85.941 Y89.476 E116.84278
M204 S5000
M205 X30 Y30
G0 F2400 X85.941 Y88.769
M204 S3000
M205 X20 Y20
G1 F1800 X114.06 Y116.888 E119.32272
M204 S5000
M205 X30 Y30
G0 F2400 X114.06 Y116.181
M204 S3000
M205 X20 Y20
G1 F1800 X85.941 Y88.062 E121.80265
M204 S5000
M205 X30 Y30
G0 F2400 X85.941 Y87.355
M204 S3000
M205 X20 Y20
G1 F1800 X114.06 Y115.474 E124.28258
M204 S5000
M205 X30 Y30
G0 F2400 X114.059 Y114.766
M204 S3000
M205 X20 Y20
G1 F1800 X85.941 Y86.648 E126.76243
M204 S5000
M205 X30 Y30
G0 F2400 X85.941 Y85.941
M204 S3000
M205 X20 Y20
G1 F1800 X114.059 Y114.059 E129.24228
M204 S5000
M205 X30 Y30
G0 F2400 X114.059 Y113.352
M204 S3000
M205 X20 Y20
G1 F1800 X85.941 Y85.233 E131.72217
M204 S5000
M205 X30 Y30
G0 F2400 X85.941 Y84.526
M204 S3000
M205 X20 Y20
G1 F1800 X114.059 Y112.645 E134.20206
M204 S5000
M205 X30 Y30
G0 F2400 X114.059 Y111.938
M204 S3000
M205 X20 Y20
G1 F1800 X85.941 Y83.819 E136.68195
M204 S5000
M205 X30 Y30
G0 F2400 X85.941 Y83.112
M204 S3000
M205 X20 Y20
G1 F1800 X114.059 Y111.231 E139.16184
M204 S5000
M205 X30 Y30
G0 F2400 X114.059 Y110.524
M204 S3000
M205 X20 Y20
G1 F1800 X85.941 Y82.405 E141.64173
M204 S5000
M205 X30 Y30
G0 F2400 X85.941 Y81.698
M204 S3000
M205 X20 Y20
G1 F1800 X114.059 Y109.817 E144.12162
M204 S5000
M205 X30 Y30
G0 F2400 X114.059 Y109.11
M204 S3000
M205 X20 Y20
G1 F1800 X85.941 Y80.991 E146.60151
M204 S5000
M205 X30 Y30
G0 F2400 X85.941 Y80.284
M204 S3000
M205 X20 Y20
G1 F1800 X114.059 Y108.403 E149.0814
M204 S5000
M205 X30 Y30
G0 F2400 X114.059 Y107.695
M204 S3000
M205 X20 Y20
G1 F1800 X85.941 Y79.577 E151.56124
M204 S5000
M205 X30 Y30
G0 F2400 X85.941 Y78.869
M204 S3000
M205 X20 Y20
G1 F1800 X114.059 Y106.988 E154.04113
M204 S5000
M205 X30 Y30
G0 F2400 X114.059 Y106.28
M204 S3000
M205 X20 Y20
G1 F1800 X85.941 Y78.162 E156.52098
M204 S5000
M205 X30 Y30
G0 F2400 X86.326 Y77.841
M204 S3000
M205 X20 Y20
G1 F1800 X114.059 Y105.573 E158.96683
M204 S5000
M205 X30 Y30
G0 F2400 X114.059 Y104.866
M204 S3000
M205 X20 Y20
G1 F1800 X87.033 Y77.841 E161.35032
M204 S5000
M205 X30 Y30
G0 F2400 X87.74 Y77.841
M204 S3000
M205 X20 Y20
G1 F1800 X114.059 Y104.159 E163.67146
M204 S5000
M205 X30 Y30
G0 F2400 X114.059 Y103.452
M204 S3000
M205 X20 Y20
G1 F1800 X88.447 Y77.841 E165.93025
M204 S5000
M205 X30 Y30
G0 F2400 X89.154 Y77.841
M204 S3000
M205 X20 Y20
G1 F1800 X114.059 Y102.745 E168.12668
M204 S5000
M205 X30 Y30
G0 F2400 X114.059 Y102.038
M204 S3000
M205 X20 Y20
G1 F1800 X89.861 Y77.841 E170.26076
M204 S5000
M205 X30 Y30
G0 F2400 X90.569 Y77.841
M204 S3000
M205 X20 Y20
G1 F1800 X114.059 Y101.331 E172.33244
M204 S5000
M205 X30 Y30
G0 F2400 X114.059 Y100.624
M204 S3000
M205 X20 Y20
G1 F1800 X91.276 Y77.841 E174.34177
M204 S5000
M205 X30 Y30
G0 F2400 X91.983 Y77.841
M204 S3000
M205 X20 Y20
G1 F1800 X114.058 Y99.916 E176.28866
M204 S5000
M205 X30 Y30
G0 F2400 X114.058 Y99.209
M204 S3000
M205 X20 Y20
G1 F1800 X92.69 Y77.841 E178.1732
M204 S5000
M205 X30 Y30
G0 F2400 X93.397 Y77.841
M204 S3000
M205 X20 Y20
G1 F1800 X114.058 Y98.502 E179.99538
M204 S5000
M205 X30 Y30
G0 F2400 X114.058 Y97.794
M204 S3000
M205 X20 Y20
G1 F1800 X94.104 Y77.841 E181.75516
M204 S5000
M205 X30 Y30
G0 F2400 X94.811 Y77.841
M204 S3000
M205 X20 Y20
G1 F1800 X114.058 Y97.087 E183.45259
M204 S5000
M205 X30 Y30
G0 F2400 X114.058 Y96.38
M204 S3000
M205 X20 Y20
G1 F1800 X95.518 Y77.841 E185.08767
M204 S5000
M205 X30 Y30
G0 F2400 X96.225 Y77.841
M204 S3000
M205 X20 Y20
G1 F1800 X114.058 Y95.673 E186.66039
M204 S5000
M205 X30 Y30
G0 F2400 X114.058 Y94.966
M204 S3000
M205 X20 Y20
G1 F1800 X96.933 Y77.841 E188.17072
M204 S5000
M205 X30 Y30
G0 F2400 X97.64 Y77.841
M204 S3000
M205 X20 Y20
G1 F1800 X114.058 Y94.259 E189.61869
M204 S5000
M205 X30 Y30
G0 F2400 X114.058 Y93.552
M204 S3000
M205 X20 Y20
G1 F1800 X98.347 Y77.841 E191.00431
M204 S5000
M205 X30 Y30
G0 F2400 X99.054 Y77.841
M204 S3000
M205 X20 Y20
G1 F1800 X114.058 Y92.845 E192.32758
M204 S5000
M205 X30 Y30
G0 F2400 X114.057 Y92.137
M204 S3000
M205 X20 Y20
G1 F1800 X99.761 Y77.841 E193.58841
M204 S5000
M205 X30 Y30
G0 F2400 X100.468 Y77.841
M204 S3000
M205 X20 Y20
